X: 2285
T: the BOYS IN BLUE
R: Reel.
%R: reel
B: James Kerr "Merry Melodies" v.2 p.31 #285
Z: 2016 John Chambers <jc:trillian.mit.edu>
M: C
L: 1/8
K: G
(3(uDEF) !segno!|\
GDB,D EFGA | Bd2d d3uB |\
Ad2d d3uc | Bd2d d3uD |\
GDB,D EFGA | Bd2d d3B |\
[1 Aa2a a2g2 | fgef dcBA :|\
[2 cBAG FDEF | GDB,D G,2 ||
D2 |\
(Dd)dd d2dc | (Bb)bb b2ag |\
(fd).d.d (e^c).c.c | dAFA GFED |\
(Dd)dd d2dc | (Bb)bb b2ag |\
(fd).d.d (e^c)cc |[1dAFA d2 :|[2 dAFA DD"_D.C."EF !segno!|]
